**harm	**harte	**timestamp	**phrase	**leadinstrument	**kern
*M4/4	*M4/4	*	*	*	*
*e:	*e:	*	*	*	*e:
1r;	N	0	.	r	1r;
=1	=1	=1	=1	=1	=1
*>A_chorus	*>A_chorus	*>A_chorus	*>A_chorus	*>A_chorus	*>A_chorus
1i7	E:min7	0.232	newline	voice	1E 1g 1b 1dd#
=2	=2	=2	=2	=2	=2
1IV7	A:13	2.184	.	voice	1A 1cc# 1ee 1gg
=3	=3	=3	=3	=3	=3
1i7	E:min7	4.137	.	voice	1E 1g 1b 1dd#
=4	=4	=4	=4	=4	=4
1IV7	A:13	6.089	.	voice	1A 1cc# 1ee 1gg
=5	=5	=5	=5	=5	=5
1i7	E:min7	8.041	newline	voice	1E 1g 1b 1dd#
=6	=6	=6	=6	=6	=6
1IV7	A:13	10.002	.	voice	1A 1cc# 1ee 1gg
=7	=7	=7	=7	=7	=7
1i7	E:min7	11.962	.	voice	1E 1g 1b 1dd#
=8	=8	=8	=8	=8	=8
1IV7	A:13	13.922	.	voice	1A 1cc# 1ee 1gg
=9	=9	=9	=9	=9	=9
*>A_interlude	*>A_interlude	*>A_interlude	*>A_interlude	*>A_interlude	*>A_interlude
1i7	E:min7	15.882	newline	guitar	1E 1g 1b 1dd#
=10	=10	=10	=10	=10	=10
1IV7	A:13	17.758	.	guitar	1A 1cc# 1ee 1gg
=11	=11	=11	=11	=11	=11
1i7	E:min7	19.634	.	guitar	1E 1g 1b 1dd#
=12	=12	=12	=12	=12	=12
1IV7	A:13	21.51	.	guitar	1A 1cc# 1ee 1gg
=13	=13	=13	=13	=13	=13
1i7	E:min7	23.386	newline	guitar	1E 1g 1b 1dd#
=14	=14	=14	=14	=14	=14
1IV7	A:13	25.252	.	guitar	1A 1cc# 1ee 1gg
=15	=15	=15	=15	=15	=15
1i7	E:min7	27.118	.	guitar	1E 1g 1b 1dd#
=16	=16	=16	=16	=16	=16
1IV7	A:13	28.983	.	guitar	1A 1cc# 1ee 1gg
=17	=17	=17	=17	=17	=17
*>A_verse	*>A_verse	*>A_verse	*>A_verse	*>A_verse	*>A_verse
1i7	E:min7	30.849	newline	voice	1E 1g 1b 1dd#
=18	=18	=18	=18	=18	=18
1IV7	A:13	32.713	.	voice	1A 1cc# 1ee 1gg
=19	=19	=19	=19	=19	=19
1i7	E:min7	34.577	.	voice	1E 1g 1b 1dd#
=20	=20	=20	=20	=20	=20
1IV7	A:13	36.442	.	voice	1A 1cc# 1ee 1gg
=21	=21	=21	=21	=21	=21
1i7	E:min7	38.306	newline	voice	1E 1g 1b 1dd#
=22	=22	=22	=22	=22	=22
1IV7	A:13	40.142	.	voice	1A 1cc# 1ee 1gg
=23	=23	=23	=23	=23	=23
1i7	E:min7	41.979	.	voice	1E 1g 1b 1dd#
=24	=24	=24	=24	=24	=24
1IV7	A:13	43.815	.	voice	1A 1cc# 1ee 1gg
=25	=25	=25	=25	=25	=25
1i7	E:min7	45.652	newline	voice	1E 1g 1b 1dd#
=26	=26	=26	=26	=26	=26
1IV7	A:13	47.485	.	voice	1A 1cc# 1ee 1gg
=27	=27	=27	=27	=27	=27
1i7	E:min7	49.319	.	voice	1E 1g 1b 1dd#
=28	=28	=28	=28	=28	=28
1IV7	A:13	51.153	.	voice	1A 1cc# 1ee 1gg
=29	=29	=29	=29	=29	=29
1i7	E:min7	52.986	newline	voice	1E 1g 1b 1dd#
=30	=30	=30	=30	=30	=30
1IV7	A:13	54.848	.	voice	1A 1cc# 1ee 1gg
=31	=31	=31	=31	=31	=31
1i7	E:min7	56.71	.	voice	1E 1g 1b 1dd#
=32	=32	=32	=32	=32	=32
1IV7	A:13	58.571	.	voice	1A 1cc# 1ee 1gg
=33	=33	=33	=33	=33	=33
*>A_chorus	*>A_chorus	*>A_chorus	*>A_chorus	*>A_chorus	*>A_chorus
1i7	E:min7	60.433	newline	voice	1E 1g 1b 1dd#
=34	=34	=34	=34	=34	=34
1IV7	A:13	62.302	.	voice	1A 1cc# 1ee 1gg
=35	=35	=35	=35	=35	=35
1i7	E:min7	64.172	.	voice	1E 1g 1b 1dd#
=36	=36	=36	=36	=36	=36
1IV7	A:13	66.042	.	voice	1A 1cc# 1ee 1gg
=37	=37	=37	=37	=37	=37
1i7	E:min7	67.911	newline	voice	1E 1g 1b 1dd#
=38	=38	=38	=38	=38	=38
1IV7	A:13	69.757	.	voice	1A 1cc# 1ee 1gg
=39	=39	=39	=39	=39	=39
1i7	E:min7	71.603	.	voice	1E 1g 1b 1dd#
=40	=40	=40	=40	=40	=40
1IV7	A:13	73.449	.	voice	1A 1cc# 1ee 1gg
=41	=41	=41	=41	=41	=41
*>B_bridge	*>B_bridge	*>B_bridge	*>B_bridge	*>B_bridge	*>B_bridge
1-VIIM7	D:maj7	75.294	newline	voice	1D 1f# 1a 1cc
=42	=42	=42	=42	=42	=42
1-III7	G:maj7	77.129	.	voice	1G- 1b- 1dd- 1ff#
=43	=43	=43	=43	=43	=43
1-VIIM7	D:maj7	78.964	.	voice	1D 1f# 1a 1cc
=44	=44	=44	=44	=44	=44
1i7b	E:min7/b3	80.798	.	voice	1e 1G 1b 1dd#
=45	=45	=45	=45	=45	=45
1-VIIM7	D:maj7	82.633	newline	voice	1D 1f# 1a 1cc
=46	=46	=46	=46	=46	=46
1-III7	G:maj7	84.493	.	voice	1G- 1b- 1dd- 1ff#
=47	=47	=47	=47	=47	=47
1-VIIM7	D:maj7	86.353	.	voice	1D 1f# 1a 1cc
=48	=48	=48	=48	=48	=48
2vi7	C#:min7	88.213	.	voice	2C 2e- 2g 2b
2II7	F#:7	89.143	.	voice	2F# 2a# 2cc# 2ee
=49	=49	=49	=49	=49	=49
1v7	B:min7	90.074	newline	voice	1B 1dd 1ff# 1aa
=50	=50	=50	=50	=50	=50
1I7	E:7	91.914	.	voice	1E 1g# 1b 1dd#
=51	=51	=51	=51	=51	=51
1if	E:min/4	93.754	.	voice	1E 1g 1b
=52	=52	=52	=52	=52	=52
1IV7	A:7	95.594	.	voice	1A 1cc# 1ee 1gg
=53	=53	=53	=53	=53	=53
*>A_solo	*>A_solo	*>A_solo	*>A_solo	*>A_solo	*>A_solo
1i7	E:min7	97.434	newline	guitar	1E 1g 1b 1dd#
=54	=54	=54	=54	=54	=54
1IV7	A:13	99.315	.	guitar	1A 1cc# 1ee 1gg
=55	=55	=55	=55	=55	=55
1i7	E:min7	101.197	.	guitar	1E 1g 1b 1dd#
=56	=56	=56	=56	=56	=56
1IV7	A:13	103.078	.	guitar	1A 1cc# 1ee 1gg
=57	=57	=57	=57	=57	=57
1i7	E:min7	104.959	newline	guitar	1E 1g 1b 1dd#
=58	=58	=58	=58	=58	=58
1IV7	A:13	106.788	.	guitar	1A 1cc# 1ee 1gg
=59	=59	=59	=59	=59	=59
1i7	E:min7	108.616	.	guitar	1E 1g 1b 1dd#
=60	=60	=60	=60	=60	=60
1IV7	A:13	110.445	.	guitar	1A 1cc# 1ee 1gg
=61	=61	=61	=61	=61	=61
1i7	E:min7	112.273	newline	guitar	1E 1g 1b 1dd#
=62	=62	=62	=62	=62	=62
1IV7	A:13	114.144	.	guitar	1A 1cc# 1ee 1gg
=63	=63	=63	=63	=63	=63
1i7	E:min7	116.014	.	guitar	1E 1g 1b 1dd#
=64	=64	=64	=64	=64	=64
1IV7	A:13	117.885	.	guitar	1A 1cc# 1ee 1gg
=65	=65	=65	=65	=65	=65
1i7	E:min7	119.755	newline	guitar	1E 1g 1b 1dd#
=66	=66	=66	=66	=66	=66
1IV7	A:13	121.59	.	guitar	1A 1cc# 1ee 1gg
=67	=67	=67	=67	=67	=67
1i7	E:min7	123.425	.	guitar	1E 1g 1b 1dd#
=68	=68	=68	=68	=68	=68
1IV7	A:13	125.259	.	guitar	1A 1cc# 1ee 1gg
=69	=69	=69	=69	=69	=69
*>A_chorus	*>A_chorus	*>A_chorus	*>A_chorus	*>A_chorus	*>A_chorus
1i7	E:min7	127.094	newline	voice	1E 1g 1b 1dd#
=70	=70	=70	=70	=70	=70
1IV7	A:13	128.987	.	voice	1A 1cc# 1ee 1gg
=71	=71	=71	=71	=71	=71
1i7	E:min7	130.88	.	voice	1E 1g 1b 1dd#
=72	=72	=72	=72	=72	=72
1IV7	A:13	132.773	.	voice	1A 1cc# 1ee 1gg
=73	=73	=73	=73	=73	=73
1i7	E:min7	134.666	newline	voice	1E 1g 1b 1dd#
=74	=74	=74	=74	=74	=74
1IV7	A:13	136.57	.	voice	1A 1cc# 1ee 1gg
=75	=75	=75	=75	=75	=75
1i7	E:min7	138.473	.	voice	1E 1g 1b 1dd#
=76	=76	=76	=76	=76	=76
1IV7	A:13	140.376	.	voice	1A 1cc# 1ee 1gg
=77	=77	=77	=77	=77	=77
*>A_verse	*>A_verse	*>A_verse	*>A_verse	*>A_verse	*>A_verse
1i7	E:min7	142.279	newline	voice	1E 1g 1b 1dd#
=78	=78	=78	=78	=78	=78
1IV7	A:13	144.146	.	voice	1A 1cc# 1ee 1gg
=79	=79	=79	=79	=79	=79
1i7	E:min7	146.013	.	voice	1E 1g 1b 1dd#
=80	=80	=80	=80	=80	=80
1IV7	A:13	147.88	.	voice	1A 1cc# 1ee 1gg
=81	=81	=81	=81	=81	=81
1i7	E:min7	149.747	newline	voice	1E 1g 1b 1dd#
=82	=82	=82	=82	=82	=82
1IV7	A:13	151.58	.	voice	1A 1cc# 1ee 1gg
=83	=83	=83	=83	=83	=83
1i7	E:min7	153.412	.	voice	1E 1g 1b 1dd#
=84	=84	=84	=84	=84	=84
1IV7	A:13	155.244	.	voice	1A 1cc# 1ee 1gg
=85	=85	=85	=85	=85	=85
1i7	E:min7	157.077	newline	voice	1E 1g 1b 1dd#
=86	=86	=86	=86	=86	=86
1IV7	A:13	158.922	.	voice	1A 1cc# 1ee 1gg
=87	=87	=87	=87	=87	=87
1i7	E:min7	160.766	.	voice	1E 1g 1b 1dd#
=88	=88	=88	=88	=88	=88
1IV7	A:13	162.611	.	voice	1A 1cc# 1ee 1gg
=89	=89	=89	=89	=89	=89
1i7	E:min7	164.456	newline	voice	1E 1g 1b 1dd#
=90	=90	=90	=90	=90	=90
1IV7	A:13	166.275	.	voice	1A 1cc# 1ee 1gg
=91	=91	=91	=91	=91	=91
1i7	E:min7	168.094	.	voice	1E 1g 1b 1dd#
=92	=92	=92	=92	=92	=92
1IV7	A:13	169.913	.	voice	1A 1cc# 1ee 1gg
=93	=93	=93	=93	=93	=93
*>A_chorus	*>A_chorus	*>A_chorus	*>A_chorus	*>A_chorus	*>A_chorus
1i7	E:min7	171.733	newline	voice	1E 1g 1b 1dd#
=94	=94	=94	=94	=94	=94
1IV7	A:13	173.578	.	voice	1A 1cc# 1ee 1gg
=95	=95	=95	=95	=95	=95
1i7	E:min7	175.423	.	voice	1E 1g 1b 1dd#
=96	=96	=96	=96	=96	=96
1IV7	A:13	177.268	.	voice	1A 1cc# 1ee 1gg
=97	=97	=97	=97	=97	=97
1i7	E:min7	179.114	newline	voice	1E 1g 1b 1dd#
=98	=98	=98	=98	=98	=98
1IV7	A:13	180.964	.	voice	1A 1cc# 1ee 1gg
=99	=99	=99	=99	=99	=99
1i7	E:min7	182.815	.	voice	1E 1g 1b 1dd#
=100	=100	=100	=100	=100	=100
1IV7	A:13	184.665	.	voice	1A 1cc# 1ee 1gg
=101	=101	=101	=101	=101	=101
*>A_chorus	*>A_chorus	*>A_chorus	*>A_chorus	*>A_chorus	*>A_chorus
1i7	E:min7	186.516	newline	voice	1E 1g 1b 1dd#
=102	=102	=102	=102	=102	=102
1IV7	A:13	188.358	.	voice	1A 1cc# 1ee 1gg
=103	=103	=103	=103	=103	=103
1i7	E:min7	190.2	.	voice	1E 1g 1b 1dd#
=104	=104	=104	=104	=104	=104
1IV7	A:13	192.043	.	voice	1A 1cc# 1ee 1gg
=105	=105	=105	=105	=105	=105
1i7	E:min7	193.885	newline	voice	1E 1g 1b 1dd#
=106	=106	=106	=106	=106	=106
1IV7	A:13	195.743	.	voice	1A 1cc# 1ee 1gg
=107	=107	=107	=107	=107	=107
1i7	E:min7	197.601	.	voice	1E 1g 1b 1dd#
=108	=108	=108	=108	=108	=108
1IV7	A:13	199.459	.	voice	1A 1cc# 1ee 1gg
=109	=109	=109	=109	=109	=109
*>A_outro	*>A_outro	*>A_outro	*>A_outro	*>A_outro	*>A_outro
1i7	E:min7	201.316	newline	guitar	1E 1g 1b 1dd#
=110	=110	=110	=110	=110	=110
1IV7	A:13	203.149	.	guitar	1A 1cc# 1ee 1gg
=111	=111	=111	=111	=111	=111
1i7	E:min7	204.982	.	guitar	1E 1g 1b 1dd#
=112	=112	=112	=112	=112	=112
1IV7	A:13	206.815	.	guitar	1A 1cc# 1ee 1gg
=113	=113	=113	=113	=113	=113
1i7	E:min7	208.648	newline	guitar	1E 1g 1b 1dd#
=114	=114	=114	=114	=114	=114
1IV7	A:13	210.477	.	guitar	1A 1cc# 1ee 1gg
=115	=115	=115	=115	=115	=115
1i7	E:min7	212.306	.	guitar	1E 1g 1b 1dd#
=116	=116	=116	=116	=116	=116
1IV7	A:13	214.135	.	guitar	1A 1cc# 1ee 1gg
=117	=117	=117	=117	=117	=117
1i7	E:min7	215.965	newline	guitar	1E 1g 1b 1dd#
=118	=118	=118	=118	=118	=118
1IV7	A:13	217.819	.	guitar	1A 1cc# 1ee 1gg
=119	=119	=119	=119	=119	=119
1i7	E:min7	219.672	.	guitar	1E 1g 1b 1dd#
=120	=120	=120	=120	=120	=120
1IV7	A:13	221.526	.	guitar	1A 1cc# 1ee 1gg
=121	=121	=121	=121	=121	=121
*>_fadeout	*>_fadeout	*>_fadeout	*>_fadeout	*>_fadeout	*>_fadeout
1i7	E:min7	223.38	newline	guitar	1E 1g 1b 1dd#
=122	=122	=122	=122	=122	=122
1IV7	A:13	225.207	.	guitar	1A 1cc# 1ee 1gg
=123	=123	=123	=123	=123	=123
1i7	E:min7	227.034	.	guitar	1E 1g 1b 1dd#
=124	=124	=124	=124	=124	=124
1IV7	A:13	228.861	.	guitar	1A 1cc# 1ee 1gg
=125	=125	=125	=125	=125	=125
1i7	E:min7	230.688	newline	guitar	1E 1g 1b 1dd#
=126	=126	=126	=126	=126	=126
1IV7	A:13	232.529	.	guitar	1A 1cc# 1ee 1gg
=127	=127	=127	=127	=127	=127
1i7	E:min7	234.369	.	guitar	1E 1g 1b 1dd#
=128	=128	=128	=128	=128	=128
1IV7	A:13	236.21	.	guitar	1A 1cc# 1ee 1gg
1r;	N	238.051	.	r	1r;
1r;	N	240.64	.	r	1r;
*-	*-	*-	*-	*-	*-
!!!OTL: Happy Anniversary
!!!COC: Little River Band
!!!BillboardChartDate: 1978/02/25
!!!BillboardPeak: 16
!!!BillboardWeeksOnChart: 18
!!!SampleTargetRank: 19
!!!SampleActualRank: 20
!!!SampleID#: 1174
!!!RDF**harmony: **recip + pitch class of root + harmonic quality
!!!RDF**harte: Chris Harte's syntax, used by MIREX
!!!RDF**phrase: newline = linebreak in original McGill transcription
!!!RDF**timestamp: McGill audio timestamp in seconds
!!!RDF**leadinstrument: original McGill primary instrumentation annotation
!!!RDT: 2017/01/12/
!!!ENC: Nathaniel Condit-Schultz
!!!EST: Awating manual error checking and editing.
